!!!!SEGMENT: pl-wn--sd-xvi-o-231_anonim--kancjonal-zamoyskich-piesn-nabozna-s-pisma-swietego-chrystus-jedyny-syn-bozy.krn
!!!cenid: 15xx:789
!!!COM: Anonim
!!!COM-rismID: pe30004985
!!!CDT:
!!!CNT:
!!!OTL: Kancjonał Zamoyskich
!!!PDT: 1558
!!!AGN:
!!!YEC: Copyright 2022 Narodowy Instytut Fryderyka Chopina (https://polishscores.org)
!!!YEM: License CC-BY-4.0 (https://creativecommons.org/licenses/by/4.0)
!!!SMS-siglum: PL-Wn
!!!SMS-shelfmark: SD XVI.O.231
!!!SMS-shelfwork: W
!!!SMS-variant:
!!!SMS-altvar:
!!!NIFC-rismSourceID: 990072129
!!!NIFC-rismChildID: 990072129
!!!NIFC-islandoraID: none
!!!URL-pdf-islandora:
!!!URL-scan: https://polona2.pl/item/piesn-nabozna-s-pisma-swietego-z-starego-y-nowego-zakonu-wespolek-z-prozba-do-syna-bozego,MjYzMTg4/6 @EN{Scan on Polona} @PL{Skany w portalu Polona}
!!!IIIF: https://polona2.pl/iiif/item/MjYzMTg4/manifest.json
!!!ONB-nifc: UWAGA: proszę zapisywać tylko teksty występujące bezpośrednio pod nutami
!!!AIN: 1 alto 1 bass 1 soprn 1 tenor
!!!key: F
**kern	**text	**mod-text	**kern	**text	**mod-text	**kern	**text	**mod-text	**kern	**text	**mod-text
*part4	*	*	*part3	*	*	*part2	*	*	*part1	*	*
*staff4	*	*	*staff3	*	*	*staff2	*	*	*staff1	*	*
*mI"Basso	*	*	*mI"Tenore	*	*	*mI"Alto	*	*	*mI"Soprano	*	*
*I"BASSVS.	*	*	*I"TENOR.	*	*	*I"ALTVS.	*	*	*I"DISCANTVS.	*	*
*I'B	*	*	*I'T	*	*	*I'A	*	*	*I'S	*	*
*Ibass	*	*	*Itenor	*	*	*Ialto	*	*	*Isoprn	*	*
*ICvox	*	*	*ICvox	*	*	*ICvox	*	*	*ICvox	*	*
*mclefF4	*	*	*mclefGv2	*	*	*mclefGv2	*	*	*mclefG2	*	*
*clefF5	*	*	*clefC5	*	*	*clefC3	*	*	*clefC1	*	*
*k[b-]	*	*	*k[b-]	*	*	*k[b-]	*	*	*k[b-]	*	*
*F:	*	*	*F:	*	*	*F:	*	*	*F:	*	*
*M2/1	*	*	*M2/1	*	*	*M2/1	*	*	*M2/1	*	*
*met()	*	*	*met()	*	*	*met()	*	*	*met()	*	*
*mmet(c|)	*	*	*mmet(c|)	*	*	*mmet(c|)	*	*	*mmet(c|)	*	*
=1-	=1-	=1-	=1-	=1-	=1-	=1-	=1-	=1-	=1-	=1-	=1-
*xywh-#9:312,1950,2196,594	*	*	*xywh-#8:602,1952,2196,573	*	*	*xywh-#9:320,388,2271,760	*	*	*xywh-#8:629,453,2172,764	*	*
1r	.	.	1r	.	.	1r	.	.	1r	.	.
2r	.	.	2r	.	.	2r	.	.	2r	.	.
2FF/	.	Chry-	2F/	.	Chry-	2c/	.	Chry-	2f/	.	Chry-
=2-	=2-	=2-	=2-	=2-	=2-	=2-	=2-	=2-	=2-	=2-	=2-
2FF/	.	-stus	2F/	.	-stus	2c/	.	-stus	2d/	.	-stus
2FF/	.	je-	2A\	.	je-	2c/	.	je-	2f/	.	je-
2C\	.	-dy-	2G\	.	-dy-	2c/	.	-dy-	2e/	.	-dy-
!	!	!	!	!	!	!	!	!	!LO:MO:null:mod=!LO&colon;T&colon;dash	!	!
!	!	!	!	!	!	!	!	!	!null	!	!
!	!	!	!	!	!	!	!	!	!LO:MO:mod=[2d	!	!
2D\	.	-ny	2F/	.	-ny	2A/	.	-ny	1d/	.	-ny
=3-	=3-	=3-	=3-	=3-	=3-	=3-	=3-	=3-	=3-	=3-	=3-
!LO:MO:null:mod=!LO&colon;T&colon;dash	!	!	!LO:MO:null:mod=!LO&colon;T&colon;dash	!	!	!LO:MO:null:mod=!LO&colon;T&colon;dash	!	!	!	!	!
!null	!	!	!null	!	!	!null	!	!	!	!	!
!LO:MO:mod=[2AA	!	!	!LO:MO:mod=[2E	!	!	!LO:MO:mod=[2A	!	!	!LO:MO:null:mod=2d]	!	!
1AA	.	Syn	1E	.	Syn	1A	.	Syn	.	.	Syn
!LO:MO:null:mod=2AA]	!	!	!LO:MO:null:mod=2E]	!	!	!LO:MO:null:mod=2A]	!	!	!LO:SIC:o=2c/	!	!
.	.	Bo-	.	.	Bo-	.	.	Bo-	2c#i	.	Bo-
1BB-	.	-ży,	1D	.	-ży,	1F	.	-ży,	1d	.	-ży,
=4-	=4-	=4-	=4-	=4-	=4-	=4-	=4-	=4-	=4-	=4-	=4-
1FF	.	Bóg	1A	.	Bóg	1A	.	Bóg	1c	.	Bóg
2BB-/	.	z Oj-	2B-\	.	z Oj-	2d\	.	z Oj-	2d/	.	z Oj-
1C\	.	-cem	1G\	.	-cem	1c\	.	-cem	1e/	.	-cem
=5-	=5-	=5-	=5-	=5-	=5-	=5-	=5-	=5-	=5-	=5-	=5-
.	.	.	.	.	.	.	.	.	.	.	.
2FF/	.	na	2A\	.	na	2c/	.	na	1f	.	na
1C	.	wie-	1G	.	wie-	1c	.	wie-	.	.	.
.	.	.	.	.	.	.	.	.	2e/	.	wie-
=6-	=6-	=6-	=6-	=6-	=6-	=6-	=6-	=6-	=6-	=6-	=6-
1FF	.	-ki,	1F	.	-ki,	1c	.	-ki,	1f	.	-ki,
2r	.	.	2r	.	.	2r	.	.	2r	.	.
2FF/	.	z Je-	2F/	.	z Je-	2c/	.	z Je-	2f/	.	z Je-
=7-	=7-	=7-	=7-	=7-	=7-	=7-	=7-	=7-	=7-	=7-	=7-
2FF/	.	-go	2F/	.	-go	2c/	.	-go	2d/	.	-go
*custos:FF	*	*	*custos:A	*	*	*custos:c	*	*	*custos:f	*	*
*xywh-#9:302,2499,2176,478	*	*	*xywh-#8:602,2471,2220,482	*	*	*xywh-#9:345,1138,2201,458	*	*	*xywh-#8:619,1182,2202,482	*	*
!LO:LB:g=original	!	!	!LO:LB:g=original	!	!	!LO:LB:g=original	!	!	!LO:LB:g=original	!	!
2FF/	.	ser-	2A\	.	ser-	2c/	.	ser-	2f/	.	ser-
2C\	.	-ca	2G\	.	-ca	2c/	.	-ca	2e/	.	-ca
2D\	.	wy-	2F\	.	wy-	2A/	.	wy-	1d/	.	wy-
=8-	=8-	=8-	=8-	=8-	=8-	=8-	=8-	=8-	=8-	=8-	=8-
1AA	.	-nik-	1E	.	-nik-	1A	.	-nik-	.	.	.
!	!	!	!	!	!	!	!	!	!LO:SIC:o=2c/	!	!
.	.	.	.	.	.	.	.	.	2c#i	.	-nik-
1BB-	.	-nął	1D	.	-nął	1F	.	-nął	1d	.	-nął
=9-	=9-	=9-	=9-	=9-	=9-	=9-	=9-	=9-	=9-	=9-	=9-
1FF	.	tak	1A	.	tak	1A	.	tak	1c	.	tak
2BB-/	.	ja-	2B-\	.	ja-	2d\	.	ja-	2d/	.	ja-
1C\	.	-ko	1G\	.	-ko	1c\	.	-ko	1e/	.	-ko
=10-	=10-	=10-	=10-	=10-	=10-	=10-	=10-	=10-	=10-	=10-	=10-
.	.	.	.	.	.	.	.	.	.	.	.
2FF/	.	Pan	2A\	.	Pan	2c/	.	Pan	1f	.	Pan
1C\	.	pra-	1G	.	pra-	1c	.	pra-	.	.	.
.	.	.	.	.	.	.	.	.	2e/	.	pra-
=11-	=11-	=11-	=11-	=11-	=11-	=11-	=11-	=11-	=11-	=11-	=11-
1FF	.	-wy	1F	.	-wy	1c	.	-wy	1f	.	-wy
!LO:TX:t=P:problem:brak pauzy 2r	!	!	!	!	!	!	!	!	!	!	!
!LO:MO:mod=2r	!	!	!	!	!	!	!	!	!	!	!
2ryy	.	.	2r	.	.	2r	.	.	2r	.	.
2F\	.	Do	2F/	.	Do	2A/	.	Do	2c/	.	Do
=12-	=12-	=12-	=12-	=12-	=12-	=12-	=12-	=12-	=12-	=12-	=12-
2D\	.	wie-	2A\	.	wie-	2d\	.	wie-	2f/	.	wie-
2D\	.	-ku	2A\	.	-ku	2d\	.	-ku	2f/	.	-ku
2G\	.	z Oj-	2B-\	.	z Oj-	2B-/	.	z Oj-	2d/	.	z Oj-
2G\	.	-cem	2B-\	.	-cem	2G/	.	-cem	2d/	.	-cem
*custos:C	*	*	*custos:c	*	*	*custos:G	*	*	*custos:e	*	*
!LO:LB:g=original	!	!	!LO:LB:g=original	!	!	!LO:LB:g=original	!	!	!LO:LB:g=original	!	!
=13-	=13-	=13-	=13-	=13-	=13-	=13-	=13-	=13-	=13-	=13-	=13-
*xywh-#9:326,2937,2095,604	*	*	*xywh-#8:590,2894,2196,543	*	*	*xywh-#9:345,1582,2196,392	*	*	*xywh-#8:659,1660,2162,422	*	*
2C\	.	bę-	2c\	.	bę-	2G/	.	bę-	2e/	.	bę-
2C\	.	-dą-	2c\	.	-dą-	2G/	.	-dą-	2e/	.	-dą-
1C	.	-cy	1G\	.	-cy	1c	.	-cy	1e	.	-cy
.	.	.	.	.	.	.	.	.	.	.	.
=14-	=14-	=14-	=14-	=14-	=14-	=14-	=14-	=14-	=14-	=14-	=14-
!LO:MO:null:mod=!LO&colon;T&colon;dash	!	!	!LO:MO:null:mod=!LO&colon;T&colon;dash	!	!	!LO:MO:null:mod=!LO&colon;T&colon;dash	!	!	!LO:MO:null:mod=!LO&colon;T&colon;dash	!	!
!null	!	!	!null	!	!	!null	!	!	!null	!	!
!LO:MO:mod=[2C	!	!	!LO:MO:mod=[2c	!	!	!LO:MO:mod=[2G	!	!	!LO:MO:mod=[2e	!	!
1C\	.	po	1c	.	po	1G	.	po	1e	.	po
!LO:MO:null:mod=2C]	!	!	!LO:MO:null:mod=2c]	!	!	!LO:MO:null:mod=2G]	!	!	!LO:MO:null:mod=2e]	!	!
.	.	tym	.	.	tym	.	.	tym	.	.	tym
1F	.	ja-	1A\	.	ja-	1A	.	ja-	1c	.	ja-
.	.	.	.	.	.	.	.	.	.	.	.
=15-	=15-	=15-	=15-	=15-	=15-	=15-	=15-	=15-	=15-	=15-	=15-
2D\	.	-ko	2F/	.	-ko	2A/	.	-ko	2f/	.	-ko
1C	.	wszech-	1G	.	wszech-	1c	.	wszech-	1e	.	wszech-
2D\	.	-mo-	2F/	.	-mo-	2A/	.	-mo-	1d/	.	-mo-
=16-	=16-	=16-	=16-	=16-	=16-	=16-	=16-	=16-	=16-	=16-	=16-
1AA/	.	-gą-	1E	.	-gą-	1A	.	-gą-	.	.	.
!	!	!	!	!	!	!	!	!	!LO:SIC:o=2c/	!	!
.	.	.	.	.	.	.	.	.	2c#i	.	-gą-
1BB-	.	-cy	1D/	.	-cy	1F	.	-cy	1d	.	-cy
.	.	.	.	.	.	.	.	.	.	.	.
=17-	=17-	=17-	=17-	=17-	=17-	=17-	=17-	=17-	=17-	=17-	=17-
!LO:MO:null:mod=!LO&colon;T&colon;dash	!	!	!LO:MO:null:mod=!LO&colon;T&colon;dash	!	!	!LO:MO:null:mod=!LO&colon;T&colon;dash	!	!	!LO:MO:null:mod=!LO&colon;T&colon;dash	!	!
!null	!	!	!null	!	!	!null	!	!	!null	!	!
!LO:MO:mod=[2FF	!	!	!LO:MO:mod=[2A	!	!	!LO:MO:mod=[2A	!	!	!LO:MO:mod=[2c	!	!
1FF/	.	tu	1A	.	tu	1A	.	tu	1c	.	tu
!LO:MO:null:mod=2FF]	!	!	!LO:MO:null:mod=2A]	!	!	!LO:MO:null:mod=2A]	!	!	!LO:MO:null:mod=2c]	!	!
.	.	na	.	.	na	.	.	na	.	.	na
2BB-/	.	świat	2B-\	.	świat	2d\	.	świat	2d/	.	świat
1C\	.	zstą-	1G\	.	zstą-	1c\	.	zstą-	1e/	.	zstą-
=18-	=18-	=18-	=18-	=18-	=18-	=18-	=18-	=18-	=18-	=18-	=18-
.	.	.	.	.	.	.	.	.	.	.	.
2FF/	.	-pić	2A\	.	-pić	2c/	.	-pić	1f	.	-pić
1C	.	ra-	1G\	.	ra-	1c	.	ra-	.	.	.
.	.	.	.	.	.	.	.	.	2e/	.	ra-
=19-	=19-	=19-	=19-	=19-	=19-	=19-	=19-	=19-	=19-	=19-	=19-
0FFl	.	czył.	0Fl/	.	czył.	0cl/	.	czył.	0fl	.	czył.
==	==	==	==	==	==	==	==	==	==	==	==
*-	*-	*-	*-	*-	*-	*-	*-	*-	*-	*-	*-
!!!system-decoration: [(*)]
!!LO:MO:ori
!!!RDF**kern: l = terminal long
!!LO:MO:end
!!!RDF**kern: i = editorial accidental
!!!filter-modern: modori -m | shed -e "s/TX(.*):t=P:/tx$1:t=P:/LG" | shed -e "s/-//B; s/custos/CUSTOS/I" | tie -s | autostem -r | sic -sq
!!!ENC: Arkadiusz Malec
!!!END: 2022-04-25
!!!EED: Andrzej Kubiczek
!!!EEV: 2022-05-03
!!!ENC-modern: Leszek Kubiak
!!!END-modern: 2022-07-22
!!!ENC-iiif: Emilia Ziętek
!!!END-iiif: 2022-09-02
